X:1
T:Title
%%score { 1 | 2 }
L:1/8
Q:1/4=100
M:4/4
K:Bb
V:1 bass nm="Grand Piano"
V:2 bass 
V:1
 [F,DF][F,CE][F,B,D][F,CE][K:treble] [B,DF]2 [B,DB]2 | [B,FA]2 [B,EG]2 [B,EG]4 | %2
w: Charlie~C.~Barnes * * * * *||
 [C=Ec]2 [CEc]2 [CEG]2 [CEA]2 | [CFA][CFA][B,=EG][B,EG] [A,F]4 | %4
w: ||
 [F,DF][F,CE][F,B,D][F,CE][K:treble] [DF]2 [DB]2 | [FA]2 G2 G4 | F2 A2 c2 d2 | [DB]6 z2 |] %8
w: ||||
V:2
 B,,B,,B,,B,, B,,2 B,,2 | E,2 E,2 E,4 | C,2 C,2 C,2 C,2 | E,F,C,C, F,4 | %4
 B,,B,,B,,B,, [B,,B,]2 [B,,B,]2 | [E,B,]2 [E,B,E]2 [E,B,E]4 | [F,A,E]2 [F,CE]2 [F,A,E]2 [F,A,F]2 | %7
 [B,,F,]6 z2 |] %8

